X: 2320
T: the GENERAL GATHERING 1745
R: Scotch Jig.
%R: jig
B: James Kerr "Merry Melodies" v.2 p.35 #320
Z: 2016 John Chambers <jc:trillian.mit.edu>
N: The bowing in bar 2 is different from the others; it may be a typo.
M: 6/8
L: 1/8
K: D
uf |\
vd2vF FGF | ABc def | edc dcB | vA2vE uE2uf |\
vd2vF FGF | ABc def | edc dcB | vA2vF uF2uf |\
vd2vF FGF | ABc def | edc dcB |
vA2vE uE2uf |\
vd2vF FGF | ABc def | edc dcB | vA2vF uF2 |]\
ud |\
AGF AGF | AGF ABc | dcB AGF | B2E E2B |\
AGF AGF | ABc def |
edc dcB | A2F F2 ud |\
AGF AGF | AGF ABc | dcB AGF | B2E E2B |\
AGF ABc | def efg | agf edc | d3  d2 |]
